X: 1561
T: I Will Buy Shoes For You
B: australian traditional tunes wiki
M:6/8
L:1/8
R: Jig
Q: 3/8=100
K:D
V:1 
|:"D"fed ede|"Bm"fede3|"Em"Bee efe|Beee3|
"D"fed ede|fed "Bm"fdB|"D"Add ded|1Addd3:|2dAFD3||
|:"D"agf gfe|agf "G"gfg|"Em"Bee efe|Bee efg|
"D"agf gfe|agf "G"gfg|"D"Add ded|1Addd3:|2dAFD3||
% abcbook-tune_id 6342d53ad0d552bedec23cb0


% abcbook-boost 0
% abcbook-tablature 
% abcbook-transpose 
% abcbook-lastupdated 1665324371147
% abcbook-soundfonts 
% abcbook-repeats 1
% NFF Book 2006

